X: 0113
T: Duke of Roxburgh's Reel - 8x24R
P: Miss Milligan's Favourite
C: NanMain
R: reel
B: Miss Milligan's Miscellany v.1 #113
Z: 2019 John Chambers <jc:trillian.mit.edu>
M: 4/4
L: 1/8
K: D
%
fe |\
"D"d3B A2F2 | "E/A7"E2e2 "C#/A7"e2fe | "D"d3B "F#/D"A2F2 | "Bm"[B6F6D6] FG |\
"D"A3a "F#/D"f2e2 | "D"d2F2 "A/D"F2FA | "G"B3A "D"F2A2 | "G"B6 "G/A7"AB ||
"D"d3f "A/D"d2A2 | "G"Bcde "F#/D"f2fg | "D"a3f "F#/D7"e2d2 | "G"B4 "E/A7"C2AG |\
"D"F2A2 "F#/D"d3A | "G"Bcde "F#/D"f2fg | "E/A7"a3A "C#/A7"B2A2 | "D"D6 fg ||
"D"a2gf "E/A7"efga | "F#/D"fedf "E/A7"e2fg | "D"abaf "F#/D4"e2d2 | "G"B4 "E/A7"C2AG |\
"D"F2A2 "F#/D"d3A | "G"Bcde "F#/D"f2fg | "E/A7"abc'd' "C#/A7"e'2a2 | "D"d4 d2 |]
